X:360
T:Dudulas
S: Traditional Hungarian
S: Learned from Beverly Woods and Seth Austen
S:Transcribed by Doug Mast.
M:4/4
L:1/8
K:C
|d4 A4 | A2 B2 cB A2 | d4 A4 | A2 B2 cB A2 |
| G4 A2 G2 | F4 E2 D2 | G4 F2 E2 | D8 |
| G4 A2 G2 | F4 E2 D2 | G4 F2 E2 | D8 |
